icons/ansible-filled.svg

<svg xmlns="http://www.w3.org/2000/svg" width="256" height="256" fill="none" viewBox="0 0 256 256"><rect width="256" height="256" fill="#000" rx="60"/><path fill="#fff" d="M96.0383 163.876C95.3427 163.877 94.655 163.728 94.0225 163.438C93.434 163.173 92.9035 162.795 92.4612 162.325C92.019 161.855 91.6737 161.303 91.445 160.699C91.2164 160.096 91.1089 159.453 91.1288 158.808C91.1486 158.163 91.2954 157.528 91.5607 156.94L107.456 121.693L107.521 121.555L123.016 87.1908C123.456 86.387 124.105 85.7164 124.894 85.2492C125.682 84.7821 126.582 84.5356 127.499 84.5356C128.416 84.5356 129.315 84.7821 130.104 85.2492C130.893 85.7164 131.542 86.387 131.982 87.1908L163.443 156.94C163.892 157.935 163.997 159.05 163.742 160.111C163.487 161.172 162.887 162.119 162.035 162.801C161.183 163.483 160.128 163.862 159.037 163.879C157.946 163.896 156.88 163.549 156.008 162.893L113.924 131.263L100.521 160.98C100.132 161.843 99.5023 162.576 98.707 163.09C97.9118 163.603 96.9851 163.876 96.0383 163.876V163.876ZM118.071 122.077L146.609 143.53L127.499 101.17L118.071 122.077Z"/><path fill="#E00" d="M127.499 215C110.193 215 93.2764 209.868 78.8872 200.253C64.4981 190.639 53.2831 176.973 46.6605 160.985C40.0379 144.996 38.3051 127.403 41.6813 110.43C45.0575 93.4565 53.3909 77.8655 65.6279 65.6285C77.8649 53.3914 93.4557 45.0578 110.429 41.6815C127.402 38.3051 144.995 40.0378 160.984 46.6602C176.972 53.2827 190.638 64.4975 200.253 78.8866C209.868 93.2757 215 110.193 215 127.498C214.975 150.697 205.748 172.939 189.344 189.343C172.94 205.747 150.698 214.974 127.499 215V215ZM127.499 49.8315C112.138 49.8317 97.1214 54.387 84.349 62.9215C71.5765 71.456 61.6217 83.5863 55.7433 97.7785C49.8649 111.971 48.327 127.587 51.3241 142.653C54.3212 157.72 61.7186 171.559 72.5809 182.421C83.4432 193.283 97.2826 200.68 112.349 203.676C127.415 206.673 143.032 205.135 157.224 199.256C171.416 193.377 183.546 183.422 192.08 170.649C200.614 157.876 205.169 142.86 205.169 127.498C205.145 106.907 196.955 87.1648 182.394 72.6043C167.833 58.0439 148.091 49.854 127.499 49.8315V49.8315Z"/></svg>

<svg xmlns="http://www.w3.org/2000/svg" width="256" height="256" fill="none"><rect width="256" height="256" fill="#000" rx="60"/><path fill="#fff" d="M96.038 163.876a4.8 4.8 0 0 1-2.016-.438 4.914 4.914 0 0 1-2.461-6.498l15.895-35.247.065-.138 15.495-34.364a5.11 5.11 0 0 1 4.483-2.655 5.11 5.11 0 0 1 4.483 2.655l31.461 69.749a4.915 4.915 0 0 1-1.408 5.861 4.92 4.92 0 0 1-6.027.092l-42.084-31.63-13.403 29.717a4.92 4.92 0 0 1-4.483 2.896m22.033-41.799 28.538 21.453-19.11-42.36z"/><path fill="#E00" d="M127.499 215a87.495 87.495 0 0 1-80.838-54.015A87.5 87.5 0 1 1 215 127.498 87.596 87.596 0 0 1 127.499 215m0-165.168a77.669 77.669 0 1 0 77.67 77.666 77.76 77.76 0 0 0-77.67-77.667"/></svg>
